X:147
T:Irish Lilt
M:2/4
L:1/8
B:Thompson's Compleat Collection of 200 Favourite Country Dances, vol. 2 (London, 1765)
Z:Transcribed and edited by Flynn Titford-Mock, 2007
Z:abc's:AK/Fiddler's Companion
K:C
c(GG)E | G2 cd | e2 (d/e/f) | e(d d)c/B/ | c(GG)E | G2 cd | e2 (d/e/f) | ec c2 :|
|: ecef | {a}g2 fe | f>g a/g/f/e/ | f(d d)c/B/ | c(GG)E | G2 cd | e2 (d/e/f) | ec c2 :|

